components/assets/ETH.svg

<svg width="55" height="55" viewBox="0 0 55 55" fill="none" xmlns="http://www.w3.org/2000/svg">
<ellipse cx="27.0528" cy="27.0758" rx="27.0528" ry="27.0758" fill="white"/>
<path d="M27.0621 5.43205L26.7676 6.43298V35.4776L27.0621 35.7715L40.5442 27.8022L27.0621 5.43205Z" fill="#343434"/>
<path d="M27.0622 5.43205L13.5801 27.8022L27.0622 35.7716V21.6743V5.43205Z" fill="#8C8C8C"/>
<path d="M27.0622 38.3242L26.8962 38.5265V48.8729L27.0622 49.3576L40.5524 30.359L27.0622 38.3242Z" fill="#3C3C3B"/>
<path d="M27.0622 49.3575V38.3241L13.5801 30.3588L27.0622 49.3575Z" fill="#8C8C8C"/>
<path d="M27.0623 35.7715L40.5442 27.8023L27.0623 21.6743V35.7715Z" fill="#141414"/>
<path d="M13.5801 27.8023L27.062 35.7715V21.6743L13.5801 27.8023Z" fill="#393939"/>
</svg>

<svg width="55" height="55" fill="none" xmlns="http://www.w3.org/2000/svg"><ellipse cx="27.053" cy="27.076" rx="27.053" ry="27.076" fill="#fff"/><path d="M27.062 5.432l-.294 1.001v29.045l.294.294 13.482-7.97-13.482-22.37z" fill="#343434"/><path d="M27.062 5.432L13.58 27.802l13.482 7.97V5.432z" fill="#8C8C8C"/><path d="M27.062 38.324l-.166.203v10.346l.166.485 13.49-18.999-13.49 7.965z" fill="#3C3C3B"/><path d="M27.062 49.358V38.324L13.58 30.36l13.482 18.998z" fill="#8C8C8C"/><path d="M27.062 35.772l13.482-7.97-13.482-6.128v14.098z" fill="#141414"/><path d="M13.58 27.802l13.482 7.97V21.674L13.58 27.802z" fill="#393939"/></svg>
